64x64/apps/appimagekit-vnote.svg

<svg xmlns="http://www.w3.org/2000/svg" width="64" height="64" version="1">
 <rect style="opacity:0.2" width="55.999" height="55.999" x="-61" y="-60" rx="2.8" ry="2.8" transform="matrix(0,-1,-1,0,0,0)"/>
 <rect style="fill:#454f6c" width="55.999" height="55.999" x="-60" y="-60" rx="2.8" ry="2.8" transform="matrix(0,-1,-1,0,0,0)"/>
 <path style="opacity:0.1;fill:#f4f4f7" d="M 6.8007812 4 C 5.2496031 4 4 5.2496032 4 6.8007812 L 4 7.8007812 C 4 6.2496031 5.2496031 5 6.8007812 5 L 57.199219 5 C 58.750397 5 60 6.2496031 60 7.8007812 L 60 6.8007812 C 60 5.2496032 58.750397 4 57.199219 4 L 6.8007812 4 z"/>
 <path style="opacity:0.2" d="M 60,23.02053 C 50.759068,35.043074 40.532567,47.961662 35.835105,55.000021 31.407125,51.326728 31.852629,46.609115 30.829102,42.206293 L 52.51894,13.994705 C 55.721741,15.230533 57.815917,19.237917 60,23.02053 Z"/>
 <path style="fill:#008679" d="M 60,22.020558 C 50.759068,34.043102 40.532567,46.96169 35.835105,54.000049 31.407125,50.326757 31.852629,45.609143 30.829102,41.206321 L 52.51894,12.994733 c 3.202801,1.235828 5.296977,5.243212 7.48106,9.025825 z"/>
 <path style="opacity:0.2" d="M 17.497122,11.000728 5.3859803,11.000921 20.516581,52.22756 c 0.267688,0.769937 1.232739,2.721093 2.444355,2.756417 l 12.874169,0.01611 C 30.697457,40.993816 25.559826,26.987618 20.422178,12.98143 20.049104,12.178142 18.865679,11.000705 17.497122,11.000705 Z"/>
 <path style="fill:#009e8d" d="M 17.497122,10.000757 5.3859803,10.000949 20.516581,51.227588 c 0.267688,0.769937 1.232739,2.721094 2.444355,2.756417 l 12.874169,0.01611 C 30.697457,39.993844 25.559826,25.987646 20.422178,11.981458 20.049104,11.17817 18.865679,10.000733 17.497122,10.000733 Z"/>
 <path style="opacity:0.2" d="M 59.993824,7.4734557 C 60.023926,6.3121993 59.19036,5.0097067 57.663333,5.0019844 L 43.96715,5.0007896 C 47.156771,9.235444 53.320946,15.937257 60,23.02065 Z"/>
 <path style="fill:#009e8d" d="M 59.993824,6.4734839 C 60.023926,5.3122275 59.19036,4.0097349 57.663333,4.0020126 L 43.96715,4.0008178 C 47.156771,8.2354719 53.320946,14.937285 60,22.020678 Z"/>
 <path style="opacity:0.2;fill:#f4f4f7" d="M 5.3867188 10 L 5.7539062 11 L 17.496094 11 C 18.864651 11 20.048801 12.177181 20.421875 12.980469 C 25.437241 26.653293 30.453343 40.327087 35.46875 54 L 35.835938 54 C 30.698289 39.993731 25.559523 25.986657 20.421875 11.980469 C 20.048801 11.177181 18.864651 10 17.496094 10 L 5.3867188 10 z"/>
 <path style="opacity:0.2;fill:#f4f4f7" d="M 43.96875 4 C 44.18986 4.2935539 44.496106 4.6579453 44.775391 5 L 57.664062 5 C 59.19109 5.0077223 60.026194 6.3113998 59.996094 7.4726562 L 59.996094 6.4726562 C 60.026194 5.3113998 59.19109 4.0077223 57.664062 4 L 43.96875 4 z"/>
</svg>

<svg xmlns="http://www.w3.org/2000/svg" width="64" height="64" version="1"><rect style="opacity:.2" width="55.999" height="55.999" x="-61" y="-60" rx="2.8" ry="2.8" transform="matrix(0 -1 -1 0 0 0)"/><rect style="fill:#454f6c" width="55.999" height="55.999" x="-60" y="-60" rx="2.8" ry="2.8" transform="matrix(0 -1 -1 0 0 0)"/><path style="opacity:.1;fill:#f4f4f7" d="M6.8 4C5.25 4 4 5.25 4 6.8v1C4 6.25 5.25 5 6.8 5h50.4C58.75 5 60 6.25 60 7.8v-1C60 5.25 58.75 4 57.2 4H6.8z"/><path style="opacity:.2" d="M60 23.02C50.76 35.044 40.533 47.963 35.835 55c-4.428-3.673-3.982-8.39-5.006-12.794l21.69-28.211c3.203 1.236 5.297 5.243 7.481 9.026z"/><path style="fill:#008679" d="M60 22.02C50.76 34.044 40.533 46.963 35.835 54c-4.428-3.673-3.982-8.39-5.006-12.794l21.69-28.211c3.203 1.236 5.297 5.243 7.481 9.026z"/><path style="opacity:.2" d="M17.497 11H5.386l15.13 41.228c.268.77 1.233 2.72 2.445 2.756L35.835 55 20.422 12.981c-.373-.803-1.556-1.98-2.925-1.98z"/><path style="fill:#009e8d" d="M17.497 10H5.386l15.13 41.228c.268.77 1.233 2.72 2.445 2.756L35.835 54 20.422 11.981c-.373-.803-1.556-1.98-2.925-1.98z"/><path style="opacity:.2" d="M59.994 7.473c.03-1.16-.804-2.463-2.33-2.471l-13.697-.001C47.157 9.235 53.321 15.937 60 23.02z"/><path style="fill:#009e8d" d="M59.994 6.473c.03-1.16-.804-2.463-2.33-2.471l-13.697-.001C47.157 8.235 53.321 14.937 60 22.02z"/><path style="opacity:.2;fill:#f4f4f7" d="m5.387 10 .367 1h11.742c1.369 0 2.553 1.177 2.926 1.98L35.469 54h.367L20.422 11.98c-.373-.803-1.557-1.98-2.926-1.98H5.386zM43.969 4c.22.294.527.658.806 1h12.89c1.526.008 2.361 1.311 2.331 2.473v-1c.03-1.162-.805-2.465-2.332-2.473H43.97z"/></svg>
